X: 40141
T: Tiggy's Giggles
R: jig
M: 6/8
K: Amajor
|:~A3 AG^F|~A3 AG^F|~G3 E^FG|ABc BAG|
~A3 dA^F|~A3 dA^F|~G3 E^FG|AG^F ~D3:|
|:fed ed^c|d2A BAG|~F3 d^cd|efg gfe|
fed ed^c|d2A BAG|~F3 d^cd|1 AGF D2e:|2 AGF DFG||

